packages/core/src/svgs/tokens/branded/AIR.svg

<svg width="24" height="24" viewBox="0 0 24 24" fill="none" xmlns="http://www.w3.org/2000/svg">
<path d="M18.6868 8.1502C18.6243 8.33144 15.7681 6.5127 13.1618 7.75645C12.3682 8.11793 11.6946 8.69903 11.2205 9.43111C10.7465 10.1632 10.4919 11.0156 10.4868 11.8877C10.4868 13.0626 10.8868 13.9502 11.3306 14.5252C12.0431 15.4626 12.7056 15.8189 13.2868 16.1377C14.2118 16.6377 15.7868 16.6564 16.2618 16.6377C17.1493 16.5877 18.1993 16.3252 19.0743 15.9064C19.418 15.7502 19.9618 15.4065 20.4431 15.019C21.2555 14.3565 22.0118 13.5315 21.9993 13.5939C21.9806 13.694 21.9869 13.7815 21.5806 14.5001C20.8187 15.8171 19.698 16.89 18.3494 17.594C17.4662 18.0847 16.4906 18.3864 15.4846 18.48C14.4787 18.5737 13.4641 18.4572 12.5055 18.1376C11.0415 17.5922 9.79961 16.5768 8.97434 15.2501C8.54933 14.444 7.78683 11.4752 8.81183 9.11888C9.38559 7.94176 10.3418 6.99422 11.5244 6.43145C14.6681 5.1002 18.7555 7.9877 18.6931 8.1502H18.6868Z" fill="url(#paint0_linear_364_6267)"/>
<path d="M18.7812 8.00006C18.6562 8.12506 17.7374 7.00006 16.2688 6.20007C15.0454 5.53378 13.6742 5.18562 12.2812 5.18756C9.03124 5.25631 6.875 7.66881 6.48751 8.11881C4.56251 10.3563 3.65626 13.8001 4.73751 16.4751C6.14375 19.9563 10.8563 21.9625 10.4938 22L10.0812 21.8687C9.5813 21.6688 3.4875 18.8875 3.26875 13.3438C3.14376 10.2189 4.14375 7.69381 4.73751 7.00631C5.45934 6.12391 6.3415 5.38595 7.33749 4.83132C8.7625 4.06256 11.4437 3.40631 13.4313 3.70632C15.6625 4.04381 17.0625 5.62506 17.7437 6.39381C18.3625 7.08131 18.8875 7.90006 18.7812 8.00006Z" fill="url(#paint1_linear_364_6267)"/>
<path d="M18.7691 8.15041C18.919 8.08166 18.7191 6.00666 17.3878 4.43167C16.8729 3.78185 16.2439 3.2312 15.5316 2.80668C12.5378 1.16294 8.85661 2.48793 8.05662 2.80668C7.24412 3.13792 5.49413 4.03792 4.03788 5.88167C2.86651 7.4133 2.17494 9.25746 2.05038 11.1817C1.65039 15.3566 3.79414 18.6316 3.94413 18.5816C4.03788 18.5566 3.06289 16.4692 3.26914 13.3441C3.35038 12.1566 3.51288 9.98167 5.00038 7.88791C5.84857 6.65338 6.98577 5.64493 8.31287 4.95042C9.10039 4.55668 11.919 3.28793 14.7441 4.30042C15.6003 4.61292 16.3941 5.08792 17.0754 5.70667C18.3065 6.84417 18.6379 8.20667 18.7628 8.14417L18.7691 8.15041Z" fill="url(#paint2_linear_364_6267)"/>
<path d="M14.4301 19.8439C14.355 19.969 9.47381 18.5565 7.63631 15.0752C7.36132 14.5564 6.08631 11.7627 6.92382 9.59402C7.25404 8.79019 7.69589 8.03696 8.23631 7.35648C8.85976 6.74526 9.6052 6.27247 10.4238 5.96899C10.855 5.78774 11.6488 5.59398 12.1113 5.53148C12.5801 5.47523 13.2926 5.48773 13.755 5.53148C14.6551 5.62524 15.8801 6.68773 15.8425 6.68773C15.8301 6.68773 14.8739 6.37524 13.88 6.31274C13.1956 6.27784 12.5103 6.36244 11.8551 6.56274C11.0071 6.8638 10.2485 7.37316 9.64881 8.04398C8.97997 8.89578 8.58745 9.93163 8.52381 11.0127C8.44881 11.9689 8.54881 13.3628 8.96131 14.4503C9.15502 14.9753 9.49262 15.6378 10.1489 16.5128C11.5238 18.3752 14.4801 19.7564 14.4301 19.8439Z" fill="url(#paint3_linear_364_6267)"/>
<path d="M11.7805 5.10042C12.578 4.95554 13.3953 4.95554 14.193 5.10042C15.1555 5.29416 15.6929 5.49417 16.3491 5.83792C17.4742 6.41916 18.8929 7.90666 18.7867 8.13167C18.5866 8.53163 15.5991 5.32541 11.4929 6.43166C10.3305 6.83167 9.61791 7.20666 8.86794 7.77541C8.08767 8.39151 7.45371 9.173 7.0117 10.0635C6.56968 10.9539 6.33062 11.9314 6.31169 12.9254C6.31169 14.2128 6.54919 14.9629 6.84294 15.7817C7.24919 16.9504 8.01793 18.2816 7.89294 18.1941C6.48669 17.2067 5.60545 14.1567 5.51169 13.5254C5.41169 12.8942 4.99919 10.1504 6.78668 7.87541C8.41168 5.79417 11.1492 5.18792 11.7805 5.10042Z" fill="url(#paint4_linear_364_6267)"/>
<defs>
<linearGradient id="paint0_linear_364_6267" x1="16.9056" y1="6.1502" x2="16.9056" y2="18.5627" gradientUnits="userSpaceOnUse">
<stop stop-color="#FAB961"/>
<stop offset="1" stop-color="#20180D"/>
</linearGradient>
<linearGradient id="paint1_linear_364_6267" x1="11.025" y1="3.63132" x2="11.025" y2="22.0314" gradientUnits="userSpaceOnUse">
<stop stop-color="#FAB961"/>
<stop offset="1" stop-color="#20180D"/>
</linearGradient>
<linearGradient id="paint2_linear_364_6267" x1="10.4066" y1="2.10042" x2="10.4066" y2="18.5879" gradientUnits="userSpaceOnUse">
<stop/>
<stop offset="0.41" stop-color="#FAB961"/>
</linearGradient>
<linearGradient id="paint3_linear_364_6267" x1="10.605" y1="6.10023" x2="10.605" y2="19.5064" gradientUnits="userSpaceOnUse">
<stop/>
<stop offset="1" stop-color="#FAB961"/>
</linearGradient>
<linearGradient id="paint4_linear_364_6267" x1="12.093" y1="5.31292" x2="12.093" y2="18.2004" gradientUnits="userSpaceOnUse">
<stop stop-color="#20180D"/>
<stop offset="1" stop-color="#FAB961"/>
</linearGradient>
</defs>
</svg>

<svg xmlns="http://www.w3.org/2000/svg" width="24" height="24" fill="none" viewBox="0 0 24 24">
    <path fill="url(#AIR__a)" d="M18.687 8.15c-.063.181-2.919-1.637-5.525-.394a4.57 4.57 0 0 0-2.675 4.132c0 1.175.4 2.062.844 2.637.712.938 1.375 1.294 1.956 1.613.925.5 2.5.518 2.975.5a7.9 7.9 0 0 0 2.812-.732c.344-.156.888-.5 1.37-.887.812-.662 1.568-1.488 1.555-1.425-.018.1-.012.188-.418.906a8 8 0 0 1-3.232 3.094 7.3 7.3 0 0 1-5.844.544 7.06 7.06 0 0 1-3.53-2.888c-.426-.806-1.188-3.775-.163-6.131a5.78 5.78 0 0 1 2.712-2.688c3.144-1.33 7.232 1.557 7.17 1.72z"/>
    <path fill="url(#AIR__b)" d="M18.781 8c-.125.125-1.044-1-2.512-1.8a8.3 8.3 0 0 0-3.988-1.012c-3.25.068-5.406 2.48-5.793 2.93-1.925 2.238-2.832 5.682-1.75 8.357 1.406 3.481 6.118 5.487 5.756 5.525l-.413-.131c-.5-.2-6.593-2.982-6.812-8.525-.125-3.125.875-5.65 1.469-6.338a9 9 0 0 1 2.6-2.175c1.424-.768 4.106-1.425 6.093-1.125 2.232.338 3.632 1.92 4.313 2.688C18.363 7.08 18.887 7.9 18.78 8"/>
    <path fill="url(#AIR__c)" d="M18.77 8.15c.149-.068-.05-2.143-1.382-3.718a6.8 6.8 0 0 0-1.856-1.625c-2.994-1.644-6.675-.32-7.475 0-.813.33-2.563 1.23-4.02 3.075a9.76 9.76 0 0 0-1.987 5.3c-.4 4.175 1.744 7.45 1.894 7.4.094-.025-.881-2.113-.675-5.238.081-1.187.244-3.362 1.731-5.456A9.2 9.2 0 0 1 8.313 4.95c.787-.393 3.606-1.662 6.431-.65.856.313 1.65.788 2.331 1.407 1.232 1.137 1.563 2.5 1.688 2.437z"/>
    <path fill="url(#AIR__d)" d="M14.43 19.844c-.075.125-4.956-1.288-6.794-4.769-.275-.519-1.55-3.312-.712-5.481a9.3 9.3 0 0 1 1.312-2.238 6.2 6.2 0 0 1 2.188-1.387c.431-.181 1.225-.375 1.687-.438.47-.056 1.182-.043 1.644 0 .9.094 2.125 1.157 2.087 1.157-.012 0-.968-.313-1.962-.375a5.9 5.9 0 0 0-2.025.25A5.4 5.4 0 0 0 9.65 8.044a5.3 5.3 0 0 0-1.125 2.969c-.075.956.025 2.35.437 3.437.194.525.532 1.188 1.188 2.063 1.375 1.862 4.331 3.243 4.281 3.33"/>
    <path fill="url(#AIR__e)" d="M11.78 5.1a6.8 6.8 0 0 1 2.413 0c.963.194 1.5.394 2.156.738 1.125.581 2.544 2.069 2.438 2.294-.2.4-3.188-2.807-7.294-1.7-1.162.4-1.875.775-2.625 1.343a6.73 6.73 0 0 0-2.556 5.15c0 1.288.237 2.038.53 2.857.407 1.168 1.176 2.5 1.05 2.412-1.405-.987-2.287-4.037-2.38-4.669-.1-.63-.513-3.375 1.275-5.65 1.625-2.08 4.362-2.687 4.994-2.775"/>
    <defs>
        <linearGradient id="AIR__a" x1="16.906" x2="16.906" y1="6.15" y2="18.563" gradientUnits="userSpaceOnUse">
            <stop stop-color="#FAB961"/>
            <stop offset="1" stop-color="#20180D"/>
        </linearGradient>
        <linearGradient id="AIR__b" x1="11.025" x2="11.025" y1="3.631" y2="22.031" gradientUnits="userSpaceOnUse">
            <stop stop-color="#FAB961"/>
            <stop offset="1" stop-color="#20180D"/>
        </linearGradient>
        <linearGradient id="AIR__c" x1="10.407" x2="10.407" y1="2.1" y2="18.588" gradientUnits="userSpaceOnUse">
            <stop/>
            <stop offset=".41" stop-color="#FAB961"/>
        </linearGradient>
        <linearGradient id="AIR__d" x1="10.605" x2="10.605" y1="6.1" y2="19.506" gradientUnits="userSpaceOnUse">
            <stop/>
            <stop offset="1" stop-color="#FAB961"/>
        </linearGradient>
        <linearGradient id="AIR__e" x1="12.093" x2="12.093" y1="5.313" y2="18.2" gradientUnits="userSpaceOnUse">
            <stop stop-color="#20180D"/>
            <stop offset="1" stop-color="#FAB961"/>
        </linearGradient>
    </defs>
</svg>
